X: 2
T: Ei pit\"asi nuorena lempi\"a
T: Illan hiljaisuudessa
O: Kiikoinen
M: 3/4
L: 1/8
K: Am
E2 \
|: "Am"c4 cc | B4 cB | "Dm"A4 A2 | "E7"E4 E2 \
| "Am"C4 D2 | C2 B,2 A,2 | "E7"E6- | E2 z2 :|
|: E2 \
| "E7"E4 ^G2 | B4 EE | "Am"A4 B2 | "F"c4 cc \
| "Dm"B4 A2 | "E7"^G4 E2 | "Am"A6- | A2z2 :|
